Pub Folder/attach/ly.svg

<svg width="16" height="16" xmlns="http://www.w3.org/2000/svg" fill-rule="evenodd" clip-rule="evenodd" stroke-linejoin="round" stroke-miterlimit="2"><g transform="matrix(.02832 0 0 .02884 .763 1)"><path d="M432.102 485.516H79V0h273.656l79.446 79.449v406.067z" fill="url(#_Linear1)" fill-rule="nonzero"/><clipPath id="a"><path d="M432.102 485.516H79V0h273.656l79.446 79.449v406.067z" clip-rule="nonzero"/></clipPath><g clip-path="url(#a)"><g transform="matrix(1.85035 0 0 1.81731 -168.171 -138.724)"><path d="M248.082.003C111.07.003 0 111.063 0 248.085c0 137.001 111.07 248.07 248.082 248.07 137.006 0 248.076-111.069 248.076-248.07C496.158 111.062 385.088.003 248.082.003z" fill="url(#_Linear3)" fill-rule="nonzero"/><clipPath id="b"><path d="M248.082.003C111.07.003 0 111.063 0 248.085c0 137.001 111.07 248.07 248.082 248.07 137.006 0 248.076-111.069 248.076-248.07C496.158 111.062 385.088.003 248.082.003z" clip-rule="nonzero"/></clipPath><g clip-path="url(#b)"><path d="M248.082.003C145.107.003 56.793 62.739 19.266 152.079h457.627C439.365 62.739 351.052.003 248.082.003z" fill="url(#_Radial5)" fill-rule="nonzero"/></g></g><g fill-rule="nonzero"><path d="M255.55 237.599c-105.365 0-190.778 46.622-190.778 104.134 0 57.51 85.414 104.134 190.779 104.134 27.89 0 54.385-3.266 78.266-9.138 30.784-7.568 15.555-57.972 25.766-66.08 10.21-8.11 86.747-6.255 86.747-28.916 0-57.512-85.413-104.134-190.78-104.134z" fill="#61994d"/><g fill="#e8e3d1"><path d="M322.509 296.898c-53.843.678-100.26 22.281-100.426 29.82-.164 7.539 40.704 28.039 94.546 27.36 53.84-.677 97.672-22.967 100.423-29.819 2.75-6.85-40.706-28.04-94.543-27.361z"/><path d="M182.25 296.898c-53.837-.678-97.294 20.511-94.544 27.361 2.752 6.852 46.584 29.141 100.423 29.82 53.843.678 94.71-19.822 94.547-27.362-.165-7.539-46.583-29.141-100.426-29.82z"/><path d="M257.598 236.378c-19.888-49.287-79.313-79.615-91.9-74.134-12.586 5.484-39.77 55.064-19.885 104.351 19.888 49.289 76.922 77.562 91.904 74.134 14.978-3.428 39.772-55.064 19.881-104.35z"/><path d="M333.917 158.959c-14.26-.07-66.96 32.985-78.067 84.088-11.109 51.106 22.665 98.162 37.836 100.97 15.169 2.81 66.955-32.985 78.067-84.088 11.109-51.103-23.58-100.902-37.836-100.97z"/></g><path d="M312.982 220.877c-1.382-51.893-47.347-95.14-61.343-92.913-13.995 2.225-57.729 43.115-56.352 95.007 1.381 51.895 45.795 92.602 61.343 92.913 15.549.315 57.732-43.114 56.352-95.007z" fill="#e0dcce"/><g fill="#f4e028"><path d="M257.005 232.645c-10.553-31.384-42.091-50.697-48.77-47.205-6.677 3.492-21.102 35.062-10.547 66.448 10.552 31.384 40.82 49.39 48.766 47.206 7.952-2.183 21.108-35.064 10.551-66.449z"/><path d="M297.506 183.348c-7.568-.044-35.534 21.004-41.428 53.546-5.896 32.542 12.027 62.507 20.078 64.295 8.05 1.788 35.53-21.005 41.426-53.545 5.896-32.544-12.51-64.252-20.076-64.296z"/><path d="M286.396 225.58c-.732-33.046-25.125-60.584-32.553-59.166-7.426 1.418-30.634 27.455-29.903 60.5.73 33.044 24.3 58.965 32.551 59.163 8.255.2 30.638-27.454 29.905-60.498z"/></g><g fill="#f5efd8"><path d="M400.873 225.695c-4.574-13.097-63.278-27.34-108.76 1.036-45.482 28.375-63.43 88.754-55.945 101.72 7.486 12.964 63.277 27.339 108.758-1.037 45.485-28.374 60.517-88.62 55.947-101.72z"/><path d="M218.988 226.73c-45.48-28.373-104.185-14.131-108.758-1.035-4.572 13.099 10.462 73.345 55.944 101.719 45.484 28.376 101.274 14.001 108.762 1.036 7.485-12.965-10.462-73.344-55.948-101.72z"/></g></g><path d="M352.656 0v79.449h79.446L352.656 0z" fill="#6bbbc1" fill-rule="nonzero"/><path d="M353.225-15.596l.707.041.706.071.701.102.696.133.689.163.682.194.671.222.661.253.649.28.635.309.621.337.605.363.588.39.569.415.55.439.53.463.508.486 79.445 79.449.482.504.459.524.434.544.41.562.384.579.357.595.33.61.303.624.274.637.245.648.215.657.186.667.155.674.125.68.094.685.064.688.032.69.001.692-.031.69-.061.688-.092.686-.123.68-.154.674-.184.667-.213.659-.244.648-.272.638-.3.624-.329.611-.356.597-.382.58-.408.563-.433.545-.457.525-.481.505-.502.483-.524.462-.545.438-.563.413-.582.389-.598.364-.614.337-.629.31-.643.282-.654.254-.665.225-.675.196-.683.167-.689.137-.696.107-.699.076-.702.046-.703.015h-79.446l-.713-.016-.711-.047-.709-.078-.704-.11-.699-.14-.691-.171-.683-.202-.673-.231-.662-.261-.649-.289-.635-.318-.621-.346-.603-.373-.586-.398-.568-.425-.547-.448-.526-.473-.505-.495-.481-.517-.457-.538-.432-.557-.406-.576-.379-.593-.352-.609-.324-.624-.295-.637-.265-.65-.236-.661-.205-.671-.174-.679-.143-.686-.112-.692-.079-.696-.048-.699-.016-.7V0l.015-.696.048-.695.079-.692.11-.688.142-.682.172-.676.203-.667.233-.658.262-.647.292-.635.32-.621.348-.607.376-.59.401-.574.428-.556.452-.536.476-.516.499-.495.521-.472.543-.449.561-.424.581-.4.598-.374.615-.347.63-.32.643-.292.657-.264.667-.235.678-.205.686-.175.694-.145.699-.114.704-.084.707-.053.709-.021.709.009zm-.569 95.045h79.446L352.656 0v79.449z"/></g><path d="M354.407-17.254l1.733.255 1.698.423 1.648.586 1.581.744 1.497.894 1.4 1.035 1.289 1.167 79.445 79.449 1.139 1.256 1.01 1.359.872 1.448.724 1.524.571 1.586.411 1.633.249 1.664.083 1.68v406.067l-.097 1.812-.289 1.793-.478 1.753-.663 1.694-.839 1.618-1.006 1.522-1.163 1.41-1.307 1.284-1.436 1.142-1.55.988-1.646.824-1.726.651-1.785.47-1.825.283-1.845.095H79l-1.845-.095-1.826-.283-1.785-.47-1.725-.651-1.647-.824-1.549-.988-1.437-1.142-1.306-1.284-1.163-1.41-1.007-1.522-.839-1.618-.662-1.694-.478-1.753-.289-1.793-.097-1.812V0l.097-1.813.289-1.792.478-1.753.662-1.695.839-1.617 1.007-1.522 1.163-1.411 1.306-1.283 1.437-1.142 1.549-.989 1.647-.824 1.725-.65 1.785-.47 1.826-.284L79-17.34h273.656l1.751.086zM79 0v485.516h353.102V79.449L352.656 0H79z"/></g><defs><linearGradient id="_Linear1" x1="0" y1="0" x2="1" y2="0" gradientUnits="userSpaceOnUse" gradientTransform="matrix(0 -485.516 692.079 0 255.551 485.516)"><stop offset="0" stop-color="#0d6672"/><stop offset=".45" stop-color="#063238"/><stop offset="1" stop-color="#042428"/></linearGradient><linearGradient id="_Linear3" x1="0" y1="0" x2="1" y2="0" gradientUnits="userSpaceOnUse" gradientTransform="matrix(0 -171.747 171.745 0 248.079 343.497)"><stop offset="0" stop-color="#addde9"/><stop offset=".19" stop-color="#92cfd8"/><stop offset=".41" stop-color="#77c1c8"/><stop offset="1" stop-color="#6bbbc1"/></linearGradient><radialGradient id="_Radial5" cx="0" cy="0" r="1" gradientUnits="userSpaceOnUse" gradientTransform="rotate(-90 209.915 -19.082) scale(95.415)"><stop offset="0" stop-color="#fff"/><stop offset="1" stop-color="#addde9"/></radialGradient></defs></svg>

<?xml version="1.0" encoding="UTF-8" standalone="no"?>
<!DOCTYPE svg PUBLIC "-//W3C//DTD SVG 1.1//EN" "http://www.w3.org/Graphics/SVG/1.1/DTD/svg11.dtd">
<svg width="100%" height="100%" viewBox="0 0 16 16" version="1.1" xmlns="http://www.w3.org/2000/svg" xmlns:xlink="http://www.w3.org/1999/xlink" xml:space="preserve" xmlns:serif="http://www.serif.com/" style="fill-rule:evenodd;clip-rule:evenodd;stroke-linejoin:round;stroke-miterlimit:2;">
    <g id="Lilypond-Icon" serif:id="Lilypond Icon" transform="matrix(0.0283205,0,0,0.0288353,0.762683,1)">
        <path d="M432.102,485.516L79,485.516L79,0L352.656,0L432.102,79.449L432.102,485.516Z" style="fill:url(#_Linear1);fill-rule:nonzero;"/>
        <clipPath id="_clip2">
            <path d="M432.102,485.516L79,485.516L79,0L352.656,0L432.102,79.449L432.102,485.516Z" clip-rule="nonzero"/>
        </clipPath>
        <g clip-path="url(#_clip2)">
            <g transform="matrix(1.85035,0,0,1.81731,-168.171,-138.724)">
                <path d="M248.082,0.003C111.07,0.003 0,111.063 0,248.085C0,385.086 111.07,496.155 248.082,496.155C385.088,496.155 496.158,385.086 496.158,248.085C496.158,111.062 385.088,0.003 248.082,0.003Z" style="fill:url(#_Linear3);fill-rule:nonzero;"/>
                <clipPath id="_clip4">
                    <path d="M248.082,0.003C111.07,0.003 0,111.063 0,248.085C0,385.086 111.07,496.155 248.082,496.155C385.088,496.155 496.158,385.086 496.158,248.085C496.158,111.062 385.088,0.003 248.082,0.003Z" clip-rule="nonzero"/>
                </clipPath>
                <g clip-path="url(#_clip4)">
                    <path d="M248.082,0.003C145.107,0.003 56.793,62.739 19.266,152.079L476.893,152.079C439.365,62.739 351.052,0.003 248.082,0.003Z" style="fill:url(#_Radial5);fill-rule:nonzero;"/>
                </g>
            </g>
            <g transform="matrix(0.99634,0,0,0.97855,8.37969,34.6768)">
                <path d="M248.079,207.37C142.326,207.37 56.599,255.014 56.599,313.787C56.599,372.558 142.327,420.204 248.079,420.204C276.072,420.204 302.664,416.866 326.633,410.865C357.53,403.131 342.245,351.622 352.493,343.336C362.741,335.049 439.559,336.945 439.559,313.787C439.559,255.014 353.832,207.37 248.079,207.37Z" style="fill:rgb(97,153,77);fill-rule:nonzero;"/>
                <g>
                    <path d="M315.283,267.969C261.242,268.662 214.654,290.739 214.488,298.442C214.324,306.147 255.342,327.096 309.382,326.403C363.419,325.711 407.412,302.932 410.174,295.93C412.934,288.93 369.318,267.275 315.283,267.969Z" style="fill:rgb(232,227,209);fill-rule:nonzero;"/>
                    <path d="M174.509,267.969C120.474,267.276 76.858,288.93 79.618,295.93C82.38,302.932 126.373,325.71 180.41,326.403C234.45,327.096 275.468,306.147 275.304,298.442C275.138,290.738 228.55,268.662 174.509,267.969Z" style="fill:rgb(232,227,209);fill-rule:nonzero;"/>
                    <path d="M250.134,206.123C230.173,155.755 170.529,124.762 157.896,130.364C145.264,135.968 117.98,186.635 137.938,237.002C157.899,287.371 215.143,316.264 230.18,312.761C245.213,309.258 270.098,256.49 250.134,206.123Z" style="fill:rgb(232,227,209);fill-rule:nonzero;"/>
                    <path d="M326.733,127.006C312.421,126.935 259.528,160.715 248.379,212.938C237.23,265.164 271.128,313.251 286.354,316.121C301.579,318.993 353.555,282.413 364.708,230.19C375.858,177.967 341.041,127.076 326.733,127.006Z" style="fill:rgb(232,227,209);fill-rule:nonzero;"/>
                </g>
                <path d="M305.721,190.282C304.334,137.251 258.2,93.056 244.153,95.332C230.106,97.606 186.212,139.392 187.594,192.422C188.98,245.454 233.557,287.053 249.162,287.371C264.768,287.693 307.106,243.312 305.721,190.282Z" style="fill:rgb(224,220,206);fill-rule:nonzero;"/>
                <g>
                    <path d="M249.539,202.308C238.947,170.236 207.293,150.499 200.59,154.068C193.888,157.636 179.41,189.899 190.004,221.972C200.594,254.044 230.973,272.445 238.949,270.213C246.93,267.982 260.134,234.381 249.539,202.308Z" style="fill:rgb(244,224,40);fill-rule:nonzero;"/>
                    <path d="M290.188,151.93C282.593,151.885 254.524,173.395 248.608,206.65C242.691,239.905 260.679,270.527 268.76,272.354C276.84,274.181 304.421,250.889 310.338,217.635C316.256,184.378 297.783,151.975 290.188,151.93Z" style="fill:rgb(244,224,40);fill-rule:nonzero;"/>
                    <path d="M279.038,195.087C278.303,161.317 253.82,133.176 246.365,134.625C238.912,136.074 215.618,162.682 216.352,196.451C217.084,230.219 240.742,256.709 249.023,256.911C257.308,257.116 279.773,228.855 279.038,195.087Z" style="fill:rgb(244,224,40);fill-rule:nonzero;"/>
                </g>
                <g>
                    <path d="M393.935,195.205C389.344,181.821 330.425,167.267 284.776,196.264C239.127,225.261 221.112,286.964 228.625,300.213C236.139,313.462 292.135,328.152 337.783,299.154C383.435,270.158 398.522,208.591 393.935,195.205Z" style="fill:rgb(245,239,216);fill-rule:nonzero;"/>
                    <path d="M211.382,196.264C165.734,167.268 106.814,181.822 102.224,195.205C97.636,208.591 112.725,270.158 158.374,299.154C204.025,328.152 260.02,313.462 267.535,300.213C275.048,286.964 257.035,225.261 211.382,196.264Z" style="fill:rgb(245,239,216);fill-rule:nonzero;"/>
                </g>
            </g>
            <path d="M352.656,0L352.656,79.449L432.102,79.449L352.656,0Z" style="fill:rgb(107,187,193);fill-rule:nonzero;"/>
            <path d="M353.225,-15.596L353.932,-15.555L354.638,-15.484L355.339,-15.382L356.035,-15.249L356.724,-15.086L357.406,-14.892L358.077,-14.67L358.738,-14.417L359.387,-14.137L360.022,-13.828L360.643,-13.491L361.248,-13.128L361.836,-12.738L362.405,-12.323L362.955,-11.884L363.485,-11.421L363.993,-10.935L443.438,68.514L443.92,69.018L444.379,69.542L444.813,70.086L445.223,70.648L445.607,71.227L445.964,71.822L446.294,72.432L446.597,73.056L446.871,73.693L447.116,74.341L447.331,74.998L447.517,75.665L447.672,76.339L447.797,77.019L447.891,77.704L447.955,78.392L447.987,79.082L447.988,79.774L447.957,80.464L447.896,81.152L447.804,81.838L447.681,82.518L447.527,83.192L447.343,83.859L447.13,84.518L446.886,85.166L446.614,85.804L446.314,86.428L445.985,87.039L445.629,87.636L445.247,88.216L444.839,88.779L444.406,89.324L443.949,89.849L443.468,90.354L442.966,90.837L442.442,91.299L441.897,91.737L441.334,92.15L440.752,92.539L440.154,92.903L439.54,93.24L438.911,93.55L438.268,93.832L437.614,94.086L436.949,94.311L436.274,94.507L435.591,94.674L434.902,94.811L434.206,94.918L433.507,94.994L432.805,95.04L432.102,95.055L352.656,95.055L351.943,95.039L351.232,94.992L350.523,94.914L349.819,94.804L349.12,94.664L348.429,94.493L347.746,94.291L347.073,94.06L346.411,93.799L345.762,93.51L345.127,93.192L344.506,92.846L343.903,92.473L343.317,92.075L342.749,91.65L342.202,91.202L341.676,90.729L341.171,90.234L340.69,89.717L340.233,89.179L339.801,88.622L339.395,88.046L339.016,87.453L338.664,86.844L338.34,86.22L338.045,85.583L337.78,84.933L337.544,84.272L337.339,83.601L337.165,82.922L337.022,82.236L336.91,81.544L336.831,80.848L336.783,80.149L336.767,79.449L336.767,0L336.782,-0.696L336.83,-1.391L336.909,-2.083L337.019,-2.771L337.161,-3.453L337.333,-4.129L337.536,-4.796L337.769,-5.454L338.031,-6.101L338.323,-6.736L338.643,-7.357L338.991,-7.964L339.367,-8.554L339.768,-9.128L340.196,-9.684L340.648,-10.22L341.124,-10.736L341.623,-11.231L342.144,-11.703L342.687,-12.152L343.248,-12.576L343.829,-12.976L344.427,-13.35L345.042,-13.697L345.672,-14.017L346.315,-14.309L346.972,-14.573L347.639,-14.808L348.317,-15.013L349.003,-15.188L349.697,-15.333L350.396,-15.447L351.1,-15.531L351.807,-15.584L352.516,-15.605L353.225,-15.596ZM352.656,79.449L432.102,79.449L352.656,0L352.656,79.449Z"/>
        </g>
        <path d="M354.407,-17.254L356.14,-16.999L357.838,-16.576L359.486,-15.99L361.067,-15.246L362.564,-14.352L363.964,-13.317L365.253,-12.15L444.698,67.299L445.837,68.555L446.847,69.914L447.719,71.362L448.443,72.886L449.014,74.472L449.425,76.105L449.674,77.769L449.757,79.449L449.757,485.516L449.66,487.328L449.371,489.121L448.893,490.874L448.23,492.568L447.391,494.186L446.385,495.708L445.222,497.118L443.915,498.402L442.479,499.544L440.929,500.532L439.283,501.356L437.557,502.007L435.772,502.477L433.947,502.76L432.102,502.855L79,502.855L77.155,502.76L75.329,502.477L73.544,502.007L71.819,501.356L70.172,500.532L68.623,499.544L67.186,498.402L65.88,497.118L64.717,495.708L63.71,494.186L62.871,492.568L62.209,490.874L61.731,489.121L61.442,487.328L61.345,485.516L61.345,0L61.442,-1.813L61.731,-3.605L62.209,-5.358L62.871,-7.053L63.71,-8.67L64.717,-10.192L65.88,-11.603L67.186,-12.886L68.623,-14.028L70.172,-15.017L71.819,-15.841L73.544,-16.491L75.329,-16.961L77.155,-17.245L79,-17.34L352.656,-17.34L354.407,-17.254ZM79,0L79,485.516L432.102,485.516L432.102,79.449L352.656,0L79,0Z"/>
    </g>
    <defs>
        <linearGradient id="_Linear1" x1="0" y1="0" x2="1" y2="0" gradientUnits="userSpaceOnUse" gradientTransform="matrix(3.02697e-14,-485.516,692.079,4.1621e-14,255.551,485.516)"><stop offset="0" style="stop-color:rgb(13,102,114);stop-opacity:1"/><stop offset="0.45" style="stop-color:rgb(6,50,56);stop-opacity:1"/><stop offset="1" style="stop-color:rgb(4,36,40);stop-opacity:1"/></linearGradient>
        <linearGradient id="_Linear3" x1="0" y1="0" x2="1" y2="0" gradientUnits="userSpaceOnUse" gradientTransform="matrix(1.05165e-14,-171.747,171.745,1.05163e-14,248.079,343.497)"><stop offset="0" style="stop-color:rgb(173,221,233);stop-opacity:1"/><stop offset="0.19" style="stop-color:rgb(146,207,216);stop-opacity:1"/><stop offset="0.41" style="stop-color:rgb(119,193,200);stop-opacity:1"/><stop offset="1" style="stop-color:rgb(107,187,193);stop-opacity:1"/></linearGradient>
        <radialGradient id="_Radial5" cx="0" cy="0" r="1" gradientUnits="userSpaceOnUse" gradientTransform="matrix(5.84248e-15,-95.415,95.415,5.84248e-15,228.996,190.833)"><stop offset="0" style="stop-color:white;stop-opacity:1"/><stop offset="1" style="stop-color:rgb(173,221,233);stop-opacity:1"/></radialGradient>
    </defs>
</svg>
